images/6604888.svg

<?xml version="1.0" encoding="UTF-8"?>
<svg xmlns="http://www.w3.org/2000/svg" xmlns:xlink="http://www.w3.org/1999/xlink" width="300pt" height="300pt" viewBox="0 0 300 300" version="1.1">
<defs>
<g>
<symbol overflow="visible" id="glyph0-0">
<path style="stroke:none;" d="M 0.546875 1.9375 L 0.546875 -7.75 L 6.046875 -7.75 L 6.046875 1.9375 Z M 1.171875 1.328125 L 5.4375 1.328125 L 5.4375 -7.140625 L 1.171875 -7.140625 Z M 1.171875 1.328125 "/>
</symbol>
<symbol overflow="visible" id="glyph0-1">
<path style="stroke:none;" d="M 4.328125 -7.28125 C 3.546875 -7.28125 2.921875 -6.984375 2.453125 -6.390625 C 1.992188 -5.804688 1.765625 -5.007812 1.765625 -4 C 1.765625 -2.988281 1.992188 -2.1875 2.453125 -1.59375 C 2.921875 -1.007812 3.546875 -0.71875 4.328125 -0.71875 C 5.117188 -0.71875 5.742188 -1.007812 6.203125 -1.59375 C 6.660156 -2.1875 6.890625 -2.988281 6.890625 -4 C 6.890625 -5.007812 6.660156 -5.804688 6.203125 -6.390625 C 5.742188 -6.984375 5.117188 -7.28125 4.328125 -7.28125 Z M 4.328125 -8.171875 C 5.453125 -8.171875 6.351562 -7.789062 7.03125 -7.03125 C 7.707031 -6.28125 8.046875 -5.269531 8.046875 -4 C 8.046875 -2.738281 7.707031 -1.726562 7.03125 -0.96875 C 6.351562 -0.21875 5.453125 0.15625 4.328125 0.15625 C 3.203125 0.15625 2.300781 -0.21875 1.625 -0.96875 C 0.957031 -1.71875 0.625 -2.726562 0.625 -4 C 0.625 -5.269531 0.957031 -6.28125 1.625 -7.03125 C 2.300781 -7.789062 3.203125 -8.171875 4.328125 -8.171875 Z M 4.328125 -8.171875 "/>
</symbol>
<symbol overflow="visible" id="glyph0-2">
<path style="stroke:none;" d="M 1.078125 -8.015625 L 2.171875 -8.015625 L 2.171875 -4.734375 L 6.109375 -4.734375 L 6.109375 -8.015625 L 7.1875 -8.015625 L 7.1875 0 L 6.109375 0 L 6.109375 -3.8125 L 2.171875 -3.8125 L 2.171875 0 L 1.078125 0 Z M 1.078125 -8.015625 "/>
</symbol>
<symbol overflow="visible" id="glyph0-3">
<path style="stroke:none;" d="M 1.078125 -8.015625 L 2.546875 -8.015625 L 6.09375 -1.3125 L 6.09375 -8.015625 L 7.15625 -8.015625 L 7.15625 0 L 5.6875 0 L 2.125 -6.703125 L 2.125 0 L 1.078125 0 Z M 1.078125 -8.015625 "/>
</symbol>
</g>
</defs>
<g id="surface35501">
<rect x="0" y="0" width="300" height="300" style="fill:rgb(100%,100%,100%);fill-opacity:1;stroke:none;"/>
<path style="fill:none;stroke-width:1.2;stroke-linecap:butt;stroke-linejoin:miter;stroke:rgb(0%,0%,0%);stroke-opacity:1;stroke-miterlimit:10;" d="M 111.855469 192.609375 L 130.925781 174.136719 "/>
<path style="fill:none;stroke-width:1.2;stroke-linecap:butt;stroke-linejoin:miter;stroke:rgb(0%,0%,0%);stroke-opacity:1;stroke-miterlimit:10;" d="M 133.683594 172.664062 L 130.363281 166.441406 "/>
<path style="fill:none;stroke-width:1.2;stroke-linecap:butt;stroke-linejoin:miter;stroke:rgb(100%,0%,0%);stroke-opacity:1;stroke-miterlimit:10;" d="M 130.363281 166.441406 L 127.039062 160.214844 "/>
<path style="fill:none;stroke-width:1.2;stroke-linecap:butt;stroke-linejoin:miter;stroke:rgb(0%,0%,0%);stroke-opacity:1;stroke-miterlimit:10;" d="M 128.171875 175.605469 L 124.851562 169.382812 "/>
<path style="fill:none;stroke-width:1.2;stroke-linecap:butt;stroke-linejoin:miter;stroke:rgb(100%,0%,0%);stroke-opacity:1;stroke-miterlimit:10;" d="M 124.851562 169.382812 L 121.527344 163.15625 "/>
<path style="fill:none;stroke-width:1.2;stroke-linecap:butt;stroke-linejoin:miter;stroke:rgb(0%,0%,0%);stroke-opacity:1;stroke-miterlimit:10;" d="M 130.925781 174.136719 L 143.695312 177.777344 "/>
<path style="fill:none;stroke-width:1.2;stroke-linecap:butt;stroke-linejoin:miter;stroke:rgb(100%,0%,0%);stroke-opacity:1;stroke-miterlimit:10;" d="M 143.695312 177.777344 L 156.460938 181.414062 "/>
<path style=" stroke:none;fill-rule:nonzero;fill:rgb(100%,100%,100%);fill-opacity:1;" d="M 115.285156 155.1875 L 124.285156 155.1875 L 124.285156 168.1875 L 115.285156 168.1875 Z M 115.285156 155.1875 "/>
<g style="fill:rgb(100%,0%,0%);fill-opacity:1;">
  <use xlink:href="#glyph0-1" x="115.285156" y="165.088867"/>
</g>
<path style=" stroke:none;fill-rule:nonzero;fill:rgb(0%,0%,0%);fill-opacity:1;" d="M 175.535156 162.941406 L 153.203125 178.050781 L 159.722656 184.78125 Z M 175.535156 162.941406 "/>
<path style=" stroke:none;fill-rule:nonzero;fill:rgb(100%,100%,100%);fill-opacity:1;" d="M 152.460938 174.914062 L 161.460938 174.914062 L 161.460938 187.914062 L 152.460938 187.914062 Z M 152.460938 174.914062 "/>
<g style="fill:rgb(100%,0%,0%);fill-opacity:1;">
  <use xlink:href="#glyph0-1" x="152.460938" y="184.81543"/>
</g>
<path style="fill:none;stroke-width:1.2;stroke-linecap:butt;stroke-linejoin:miter;stroke:rgb(0%,0%,0%);stroke-opacity:1;stroke-miterlimit:10;" d="M 175.535156 162.941406 L 169.074219 137.1875 "/>
<path style="fill:none;stroke-width:1.2;stroke-linecap:butt;stroke-linejoin:miter;stroke:rgb(0%,0%,0%);stroke-opacity:1;stroke-miterlimit:10;" d="M 201.070312 170.222656 L 175.535156 162.941406 "/>
<path style="fill:none;stroke-width:1.2;stroke-linecap:butt;stroke-linejoin:miter;stroke:rgb(0%,0%,0%);stroke-opacity:1;stroke-miterlimit:10;" d="M 169.074219 137.1875 L 188.144531 118.714844 "/>
<path style=" stroke:none;fill-rule:nonzero;fill:rgb(0%,0%,0%);fill-opacity:1;" d="M 169.074219 137.1875 L 144.820312 125.402344 L 142.253906 134.414062 Z M 169.074219 137.1875 "/>
<path style="fill:none;stroke-width:1.2;stroke-linecap:butt;stroke-linejoin:miter;stroke:rgb(0%,0%,0%);stroke-opacity:1;stroke-miterlimit:10;" d="M 188.144531 118.714844 L 213.679688 125.992188 "/>
<path style=" stroke:none;fill-rule:nonzero;fill:rgb(0%,0%,0%);fill-opacity:1;" d="M 188.144531 118.714844 L 186.226562 91.820312 L 177.136719 94.101562 Z M 188.144531 118.714844 "/>
<path style="fill:none;stroke-width:1.2;stroke-linecap:butt;stroke-linejoin:miter;stroke:rgb(0%,0%,0%);stroke-opacity:1;stroke-miterlimit:10;" d="M 213.679688 125.992188 L 232.753906 107.519531 "/>
<path style="fill:none;stroke-width:1.2;stroke-linecap:butt;stroke-linejoin:miter;stroke:rgb(0%,0%,0%);stroke-opacity:1;stroke-miterlimit:10;" d="M 213.679688 125.992188 L 220.140625 151.746094 "/>
<path style=" stroke:none;fill-rule:nonzero;fill:rgb(0%,0%,0%);fill-opacity:1;" d="M 213.679688 125.992188 L 228.445312 133.050781 L 229.894531 123.792969 Z M 213.679688 125.992188 "/>
<path style="fill:none;stroke-width:1.2;stroke-linecap:butt;stroke-linejoin:miter;stroke:rgb(0%,0%,0%);stroke-opacity:1;stroke-miterlimit:10;" d="M 232.753906 107.519531 L 226.289062 81.765625 "/>
<path style="fill:none;stroke-width:1;stroke-linecap:butt;stroke-linejoin:miter;stroke:rgb(0%,0%,0%);stroke-opacity:1;stroke-miterlimit:10;" d="M 232.753906 107.519531 L 232.753906 107.519531 M 235.449219 108.832031 L 235.734375 107.828125 M 238.148438 110.140625 L 238.71875 108.136719 M 240.847656 111.453125 L 241.703125 108.445312 M 243.542969 112.765625 L 244.6875 108.753906 M 246.242188 114.078125 L 247.671875 109.0625 M 248.941406 115.386719 L 250.65625 109.371094 M 251.640625 116.699219 L 253.640625 109.679688 M 254.335938 118.011719 L 256.625 109.988281 M 257.003906 119.304688 L 259.570312 110.292969 "/>
<path style="fill:none;stroke-width:1.2;stroke-linecap:butt;stroke-linejoin:miter;stroke:rgb(0%,0%,0%);stroke-opacity:1;stroke-miterlimit:10;" d="M 226.289062 81.765625 L 200.753906 74.484375 "/>
<path style="fill:none;stroke-width:1.2;stroke-linecap:butt;stroke-linejoin:miter;stroke:rgb(0%,0%,0%);stroke-opacity:1;stroke-miterlimit:10;" d="M 200.753906 74.484375 L 181.683594 92.960938 "/>
<path style="fill:none;stroke-width:1.2;stroke-linecap:butt;stroke-linejoin:miter;stroke:rgb(0%,0%,0%);stroke-opacity:1;stroke-miterlimit:10;" d="M 181.683594 92.960938 L 157.441406 103.796875 "/>
<path style="fill:none;stroke-width:1.2;stroke-linecap:butt;stroke-linejoin:miter;stroke:rgb(0%,0%,0%);stroke-opacity:1;stroke-miterlimit:10;" d="M 181.683594 92.960938 L 166.800781 70.96875 "/>
<path style=" stroke:none;fill-rule:nonzero;fill:rgb(100%,100%,100%);fill-opacity:1;" d="M 250.289062 108.300781 L 267.289062 108.300781 L 267.289062 121.300781 L 250.289062 121.300781 Z M 250.289062 108.300781 "/>
<g style="fill:rgb(100%,0%,0%);fill-opacity:1;">
  <use xlink:href="#glyph0-1" x="250.289062" y="118.202148"/>
  <use xlink:href="#glyph0-2" x="258.689453" y="118.202148"/>
</g>
<path style="fill:none;stroke-width:1.2;stroke-linecap:butt;stroke-linejoin:miter;stroke:rgb(0%,0%,0%);stroke-opacity:1;stroke-miterlimit:10;" d="M 220.140625 151.746094 L 201.070312 170.222656 "/>
<path style=" stroke:none;fill-rule:nonzero;fill:rgb(0%,0%,0%);fill-opacity:1;" d="M 220.140625 151.746094 L 235.476562 146.03125 L 229.824219 138.554688 Z M 220.140625 151.746094 "/>
<path style="fill:none;stroke-width:1.2;stroke-linecap:butt;stroke-linejoin:miter;stroke:rgb(0%,0%,0%);stroke-opacity:1;stroke-miterlimit:10;" d="M 245.675781 159.027344 L 220.140625 151.746094 "/>
<path style="fill:none;stroke-width:1.2;stroke-linecap:butt;stroke-linejoin:miter;stroke:rgb(0%,0%,0%);stroke-opacity:1;stroke-miterlimit:10;" d="M 201.070312 170.222656 L 204.300781 183.097656 "/>
<path style="fill:none;stroke-width:1.2;stroke-linecap:butt;stroke-linejoin:miter;stroke:rgb(100%,0%,0%);stroke-opacity:1;stroke-miterlimit:10;" d="M 204.300781 183.097656 L 207.53125 195.976562 "/>
<path style=" stroke:none;fill-rule:nonzero;fill:rgb(0%,0%,0%);fill-opacity:1;" d="M 201.070312 170.222656 L 178.738281 185.328125 L 185.257812 192.0625 Z M 201.070312 170.222656 "/>
<path style="fill:none;stroke-width:1.2;stroke-linecap:butt;stroke-linejoin:miter;stroke:rgb(100%,0%,0%);stroke-opacity:1;stroke-miterlimit:10;" d="M 207.53125 195.976562 L 220.300781 199.617188 "/>
<path style="fill:none;stroke-width:1.2;stroke-linecap:butt;stroke-linejoin:miter;stroke:rgb(0%,0%,0%);stroke-opacity:1;stroke-miterlimit:10;" d="M 220.300781 199.617188 L 233.066406 203.253906 "/>
<path style=" stroke:none;fill-rule:nonzero;fill:rgb(100%,100%,100%);fill-opacity:1;" d="M 203.53125 189.476562 L 212.53125 189.476562 L 212.53125 202.476562 L 203.53125 202.476562 Z M 203.53125 189.476562 "/>
<g style="fill:rgb(100%,0%,0%);fill-opacity:1;">
  <use xlink:href="#glyph0-1" x="203.53125" y="199.37793"/>
</g>
<path style="fill:none;stroke-width:1.2;stroke-linecap:butt;stroke-linejoin:miter;stroke:rgb(0%,0%,0%);stroke-opacity:1;stroke-miterlimit:10;" d="M 233.066406 203.253906 L 252.140625 184.78125 "/>
<path style=" stroke:none;fill-rule:nonzero;fill:rgb(0%,0%,0%);fill-opacity:1;" d="M 233.066406 203.253906 L 251.824219 222.625 L 257.320312 215.035156 Z M 233.066406 203.253906 "/>
<path style="fill:none;stroke-width:1.2;stroke-linecap:butt;stroke-linejoin:miter;stroke:rgb(0%,0%,0%);stroke-opacity:1;stroke-miterlimit:10;" d="M 233.066406 203.253906 L 221.464844 227.140625 "/>
<path style="fill:none;stroke-width:1.2;stroke-linecap:butt;stroke-linejoin:miter;stroke:rgb(0%,0%,0%);stroke-opacity:1;stroke-miterlimit:10;" d="M 252.140625 184.78125 L 245.675781 159.027344 "/>
<path style="fill:none;stroke-width:1.2;stroke-linecap:butt;stroke-linejoin:miter;stroke:rgb(0%,0%,0%);stroke-opacity:1;stroke-miterlimit:10;" d="M 247.851562 161.269531 L 257.386719 152.035156 "/>
<path style="fill:none;stroke-width:1.2;stroke-linecap:butt;stroke-linejoin:miter;stroke:rgb(100%,0%,0%);stroke-opacity:1;stroke-miterlimit:10;" d="M 257.386719 152.035156 L 266.921875 142.796875 "/>
<path style="fill:none;stroke-width:1.2;stroke-linecap:butt;stroke-linejoin:miter;stroke:rgb(0%,0%,0%);stroke-opacity:1;stroke-miterlimit:10;" d="M 243.503906 156.785156 L 253.039062 147.546875 "/>
<path style="fill:none;stroke-width:1.2;stroke-linecap:butt;stroke-linejoin:miter;stroke:rgb(100%,0%,0%);stroke-opacity:1;stroke-miterlimit:10;" d="M 253.039062 147.546875 L 262.578125 138.308594 "/>
<path style=" stroke:none;fill-rule:nonzero;fill:rgb(100%,100%,100%);fill-opacity:1;" d="M 260.75 134.054688 L 269.75 134.054688 L 269.75 147.054688 L 260.75 147.054688 Z M 260.75 134.054688 "/>
<g style="fill:rgb(100%,0%,0%);fill-opacity:1;">
  <use xlink:href="#glyph0-1" x="260.75" y="143.956055"/>
</g>
<path style="fill:none;stroke-width:1.2;stroke-linecap:butt;stroke-linejoin:miter;stroke:rgb(0%,0%,0%);stroke-opacity:1;stroke-miterlimit:10;" d="M 221.242188 224.023438 L 194.757812 225.914062 "/>
<path style="fill:none;stroke-width:1.2;stroke-linecap:butt;stroke-linejoin:miter;stroke:rgb(0%,0%,0%);stroke-opacity:1;stroke-miterlimit:10;" d="M 221.6875 230.253906 L 195.203125 232.148438 "/>
<path style=" stroke:none;fill-rule:nonzero;fill:rgb(100%,100%,100%);fill-opacity:1;" d="M 224.648438 135.792969 L 241.648438 135.792969 L 241.648438 148.792969 L 224.648438 148.792969 Z M 224.648438 135.792969 "/>
<g style="fill:rgb(100%,0%,0%);fill-opacity:1;">
  <use xlink:href="#glyph0-1" x="224.648438" y="145.694336"/>
  <use xlink:href="#glyph0-2" x="233.048828" y="145.694336"/>
</g>
<path style="fill:none;stroke-width:1.2;stroke-linecap:butt;stroke-linejoin:miter;stroke:rgb(100%,0%,0%);stroke-opacity:1;stroke-miterlimit:10;" d="M 143.539062 129.90625 L 134 139.144531 "/>
<path style="fill:none;stroke-width:1.2;stroke-linecap:butt;stroke-linejoin:miter;stroke:rgb(0%,0%,0%);stroke-opacity:1;stroke-miterlimit:10;" d="M 134 139.144531 L 124.464844 148.382812 "/>
<path style=" stroke:none;fill-rule:nonzero;fill:rgb(100%,100%,100%);fill-opacity:1;" d="M 139.539062 123.40625 L 148.539062 123.40625 L 148.539062 136.40625 L 139.539062 136.40625 Z M 139.539062 123.40625 "/>
<g style="fill:rgb(100%,0%,0%);fill-opacity:1;">
  <use xlink:href="#glyph0-1" x="139.539062" y="133.307617"/>
</g>
<path style="fill:none;stroke-width:1.2;stroke-linecap:butt;stroke-linejoin:miter;stroke:rgb(0%,0%,0%);stroke-opacity:1;stroke-miterlimit:10;" d="M 121.339844 148.386719 L 121.359375 161.664062 "/>
<path style="fill:none;stroke-width:1.2;stroke-linecap:butt;stroke-linejoin:miter;stroke:rgb(100%,0%,0%);stroke-opacity:1;stroke-miterlimit:10;" d="M 121.359375 161.664062 L 121.378906 174.9375 "/>
<path style="fill:none;stroke-width:1.2;stroke-linecap:butt;stroke-linejoin:miter;stroke:rgb(0%,0%,0%);stroke-opacity:1;stroke-miterlimit:10;" d="M 127.589844 148.375 L 127.609375 161.652344 "/>
<path style="fill:none;stroke-width:1.2;stroke-linecap:butt;stroke-linejoin:miter;stroke:rgb(100%,0%,0%);stroke-opacity:1;stroke-miterlimit:10;" d="M 127.609375 161.652344 L 127.628906 174.929688 "/>
<path style="fill:none;stroke-width:1.2;stroke-linecap:butt;stroke-linejoin:miter;stroke:rgb(0%,0%,0%);stroke-opacity:1;stroke-miterlimit:10;" d="M 124.464844 148.382812 L 98.929688 141.101562 "/>
<path style=" stroke:none;fill-rule:nonzero;fill:rgb(100%,100%,100%);fill-opacity:1;" d="M 120.503906 168.433594 L 129.503906 168.433594 L 129.503906 181.433594 L 120.503906 181.433594 Z M 120.503906 168.433594 "/>
<g style="fill:rgb(100%,0%,0%);fill-opacity:1;">
  <use xlink:href="#glyph0-1" x="120.503906" y="178.334961"/>
</g>
<path style="fill:none;stroke-width:1.2;stroke-linecap:butt;stroke-linejoin:miter;stroke:rgb(0%,0%,0%);stroke-opacity:1;stroke-miterlimit:10;" d="M 98.929688 141.101562 L 79.859375 159.574219 "/>
<path style="fill:none;stroke-width:1.2;stroke-linecap:butt;stroke-linejoin:miter;stroke:rgb(0%,0%,0%);stroke-opacity:1;stroke-miterlimit:10;" d="M 79.859375 159.574219 L 67.089844 155.933594 "/>
<path style="fill:none;stroke-width:1.2;stroke-linecap:butt;stroke-linejoin:miter;stroke:rgb(0%,0%,100%);stroke-opacity:1;stroke-miterlimit:10;" d="M 67.089844 155.933594 L 54.324219 152.296875 "/>
<path style="fill:none;stroke-width:1.2;stroke-linecap:butt;stroke-linejoin:miter;stroke:rgb(0%,0%,100%);stroke-opacity:1;stroke-miterlimit:10;" d="M 54.324219 152.296875 L 44.785156 161.53125 "/>
<path style="fill:none;stroke-width:1.2;stroke-linecap:butt;stroke-linejoin:miter;stroke:rgb(0%,0%,0%);stroke-opacity:1;stroke-miterlimit:10;" d="M 44.785156 161.53125 L 35.25 170.769531 "/>
<path style="fill:none;stroke-width:1.2;stroke-linecap:butt;stroke-linejoin:miter;stroke:rgb(0%,0%,100%);stroke-opacity:1;stroke-miterlimit:10;" d="M 54.324219 152.296875 L 51.089844 139.417969 "/>
<path style="fill:none;stroke-width:1.2;stroke-linecap:butt;stroke-linejoin:miter;stroke:rgb(0%,0%,0%);stroke-opacity:1;stroke-miterlimit:10;" d="M 51.089844 139.417969 L 47.859375 126.542969 "/>
<path style=" stroke:none;fill-rule:nonzero;fill:rgb(100%,100%,100%);fill-opacity:1;" d="M 50.324219 145.796875 L 58.324219 145.796875 L 58.324219 158.796875 L 50.324219 158.796875 Z M 50.324219 145.796875 "/>
<g style="fill:rgb(0%,0%,100%);fill-opacity:1;">
  <use xlink:href="#glyph0-3" x="50.324219" y="155.698242"/>
</g>
</g>
</svg>

<svg xmlns="http://www.w3.org/2000/svg" xmlns:xlink="http://www.w3.org/1999/xlink" width="300pt" height="300pt" viewBox="0 0 300 300"><defs><symbol overflow="visible"><path d="M.547 1.938V-7.75h5.5v9.688zm.625-.61h4.266v-8.47H1.171zm0 0"/></symbol><symbol overflow="visible" id="a"><path d="M4.328-7.28c-.78 0-1.406.296-1.875.89-.46.585-.687 1.382-.687 2.39 0 1.012.226 1.813.687 2.406.47.586 1.094.875 1.875.875.79 0 1.414-.288 1.875-.874.457-.593.688-1.394.688-2.406 0-1.008-.23-1.805-.687-2.39-.46-.594-1.086-.89-1.875-.89zm0-.892c1.125 0 2.024.383 2.703 1.14C7.708-6.28 8.048-5.27 8.048-4c0 1.262-.34 2.273-1.016 3.03C6.353-.22 5.454.157 4.33.157S2.3-.22 1.625-.97c-.668-.75-1-1.757-1-3.03 0-1.27.332-2.28 1-3.03.676-.76 1.578-1.142 2.703-1.142zm0 0"/></symbol><symbol overflow="visible" id="b"><path d="M1.078-8.016h1.094v3.282H6.11v-3.282h1.077V0H6.11v-3.813H2.17V0H1.078zm0 0"/></symbol><symbol overflow="visible" id="c"><path d="M1.078-8.016h1.47l3.546 6.704v-6.704h1.062V0H5.688L2.124-6.703V0H1.078zm0 0"/></symbol></defs><g><path fill="#fff" d="M0 0h300v300H0z"/><path d="M111.855 192.61l19.07-18.473M133.684 172.664l-3.32-6.223" stroke-width="1.2" stroke="#000" stroke-miterlimit="10" fill="none"/><path d="M130.363 166.44l-3.324-6.225" stroke-width="1.2" stroke="#f00" stroke-miterlimit="10" fill="none"/><path d="M128.172 175.605l-3.32-6.222" stroke-width="1.2" stroke="#000" stroke-miterlimit="10" fill="none"/><path d="M124.852 169.383l-3.325-6.227" stroke-width="1.2" stroke="#f00" stroke-miterlimit="10" fill="none"/><path d="M130.926 174.137l12.77 3.64" stroke-width="1.2" stroke="#000" stroke-miterlimit="10" fill="none"/><path d="M143.695 177.777l12.766 3.637" stroke-width="1.2" stroke="#f00" stroke-miterlimit="10" fill="none"/><path d="M115.285 155.188h9v13h-9zm0 0" fill="#fff"/><use xlink:href="#a" x="115.285" y="165.089" fill="#f00"/><path d="M175.535 162.94l-22.332 15.11 6.52 6.73zm0 0"/><path d="M152.46 174.914h9v13h-9zm0 0" fill="#fff"/><use xlink:href="#a" x="152.461" y="184.815" fill="#f00"/><path d="M175.535 162.94l-6.46-25.752M201.07 170.223l-25.535-7.282M169.074 137.188l19.07-18.473" stroke-width="1.2" stroke="#000" stroke-miterlimit="10" fill="none"/><path d="M169.074 137.188L144.82 125.4l-2.566 9.012zm0 0"/><path d="M188.145 118.715l25.535 7.277" stroke-width="1.2" stroke="#000" stroke-miterlimit="10" fill="none"/><path d="M188.145 118.715l-1.918-26.895-9.09 2.282zm0 0"/><path d="M213.68 125.992l19.074-18.472M213.68 125.992l6.46 25.754" stroke-width="1.2" stroke="#000" stroke-miterlimit="10" fill="none"/><path d="M213.68 125.992l14.765 7.06 1.45-9.26zm0 0"/><path d="M232.754 107.52l-6.465-25.754" stroke-width="1.2" stroke="#000" stroke-miterlimit="10" fill="none"/><path d="M232.754 107.52m2.695 1.312l.284-1.004m2.414 2.313l.57-2.003m2.13 3.316l.855-3.008m1.84 4.32l1.144-4.01m1.555 5.323l1.43-5.016m1.27 6.325l1.714-6.016m.985 7.33l2-7.02m.696 8.332l2.29-8.024m.378 9.317l2.566-9.012" stroke="#000" stroke-miterlimit="10" fill="none"/><path d="M226.29 81.766l-25.536-7.282M200.754 74.484l-19.07 18.477M181.684 92.96l-24.243 10.837M181.684 92.96L166.8 70.97" stroke-width="1.2" stroke="#000" stroke-miterlimit="10" fill="none"/><path d="M250.29 108.3h17v13h-17zm0 0" fill="#fff"/><g fill="#f00"><use xlink:href="#a" x="250.289" y="118.202"/><use xlink:href="#b" x="258.689" y="118.202"/></g><path d="M220.14 151.746l-19.07 18.477" stroke-width="1.2" stroke="#000" stroke-miterlimit="10" fill="none"/><path d="M220.14 151.746l15.337-5.715-5.653-7.475zm0 0"/><path d="M245.676 159.027l-25.535-7.28M201.07 170.223l3.23 12.875" stroke-width="1.2" stroke="#000" stroke-miterlimit="10" fill="none"/><path d="M204.3 183.098l3.23 12.88" stroke-width="1.2" stroke="#f00" stroke-miterlimit="10" fill="none"/><path d="M201.07 170.223l-22.332 15.105 6.52 6.734zm0 0"/><path d="M207.53 195.977l12.77 3.64" stroke-width="1.2" stroke="#f00" stroke-miterlimit="10" fill="none"/><path d="M220.3 199.617l12.766 3.637" stroke-width="1.2" stroke="#000" stroke-miterlimit="10" fill="none"/><path d="M203.53 189.477h9v13h-9zm0 0" fill="#fff"/><use xlink:href="#a" x="203.531" y="199.378" fill="#f00"/><path d="M233.066 203.254l19.075-18.473" stroke-width="1.2" stroke="#000" stroke-miterlimit="10" fill="none"/><path d="M233.066 203.254l18.758 19.37 5.496-7.59zm0 0"/><path d="M233.066 203.254l-11.6 23.887M252.14 184.78l-6.464-25.753M247.852 161.27l9.535-9.235" stroke-width="1.2" stroke="#000" stroke-miterlimit="10" fill="none"/><path d="M257.387 152.035l9.535-9.238" stroke-width="1.2" stroke="#f00" stroke-miterlimit="10" fill="none"/><path d="M243.504 156.785l9.535-9.238" stroke-width="1.2" stroke="#000" stroke-miterlimit="10" fill="none"/><path d="M253.04 147.547l9.538-9.238" stroke-width="1.2" stroke="#f00" stroke-miterlimit="10" fill="none"/><path d="M260.75 134.055h9v13h-9zm0 0" fill="#fff"/><use xlink:href="#a" x="260.75" y="143.956" fill="#f00"/><path d="M221.242 224.023l-26.484 1.89M221.688 230.254l-26.485 1.894" stroke-width="1.2" stroke="#000" stroke-miterlimit="10" fill="none"/><path d="M224.648 135.793h17v13h-17zm0 0" fill="#fff"/><g fill="#f00"><use xlink:href="#a" x="224.648" y="145.694"/><use xlink:href="#b" x="233.049" y="145.694"/></g><path d="M143.54 129.906l-9.54 9.24" stroke-width="1.2" stroke="#f00" stroke-miterlimit="10" fill="none"/><path d="M134 139.145l-9.535 9.238" stroke-width="1.2" stroke="#000" stroke-miterlimit="10" fill="none"/><path d="M139.54 123.406h9v13h-9zm0 0" fill="#fff"/><use xlink:href="#a" x="139.539" y="133.308" fill="#f00"/><path d="M121.34 148.387l.02 13.277" stroke-width="1.2" stroke="#000" stroke-miterlimit="10" fill="none"/><path d="M121.36 161.664l.02 13.274" stroke-width="1.2" stroke="#f00" stroke-miterlimit="10" fill="none"/><path d="M127.59 148.375l.02 13.277" stroke-width="1.2" stroke="#000" stroke-miterlimit="10" fill="none"/><path d="M127.61 161.652l.02 13.278" stroke-width="1.2" stroke="#f00" stroke-miterlimit="10" fill="none"/><path d="M124.465 148.383l-25.535-7.28" stroke-width="1.2" stroke="#000" stroke-miterlimit="10" fill="none"/><path d="M120.504 168.434h9v13h-9zm0 0" fill="#fff"/><use xlink:href="#a" x="120.504" y="178.335" fill="#f00"/><path d="M98.93 141.102l-19.07 18.472M79.86 159.574l-12.77-3.64" stroke-width="1.2" stroke="#000" stroke-miterlimit="10" fill="none"/><path d="M67.09 155.934l-12.766-3.637M54.324 152.297l-9.54 9.234" stroke-width="1.2" stroke="#00f" stroke-miterlimit="10" fill="none"/><path d="M44.785 161.53l-9.535 9.24" stroke-width="1.2" stroke="#000" stroke-miterlimit="10" fill="none"/><path d="M54.324 152.297l-3.234-12.88" stroke-width="1.2" stroke="#00f" stroke-miterlimit="10" fill="none"/><path d="M51.09 139.418l-3.23-12.875" stroke-width="1.2" stroke="#000" stroke-miterlimit="10" fill="none"/><path d="M50.324 145.797h8v13h-8zm0 0" fill="#fff"/><use xlink:href="#c" x="50.324" y="155.698" fill="#00f"/></g></svg>
